X:1
T:Sonic Boom
T:Sonic Boom
T:Score
T:Transcribed by: Barrett Hodgson
C:Transcribed by: Barrett Hodgson
%%score { 1 | 2 | 3 } 4
L:1/8
Q:1/4=120
M:4/4
K:Ab
V:1 bass nm="Trombone" snm="Tbn."
V:2 bass 
V:3 bass 
V:4 bass nm="Tuba" snm="Tba."
V:1
 F,2 z2 F,3/2F,3/2F, | E,2 z2 z E,/E,/ z/ E,/E,/ z/ | D,2 z2 D,3/2D,3/2D, | C,2 z2 .C.C D/C/B, | %4
 F,2 z2 F,3/2F,3/2F, | G,2 z2 z G,/G,/ z/ G,/G,/ z/ | A,2 z2 A,3/2A,3/2A, | B,2 z2 .C.C D/C/B, | %8
 F,CDC z CDC | z CDC FCDC | z CDC z CDC | z CDC FCDC | z C/C/ D/D/C/C/ z C/C/ D/D/C/C/ | %13
 z C/C/ D/D/C/C/ F/F/C/C/ D/D/C/C/ | z C/C/ D/D/C/C/ z C/C/ D/D/C/C/ | %15
 z C/C/ D/D/C/C/ .B,.B, C/B,/A, |: F,2 F2 E2 D2 | C2 B,2 A,/B,/A,/G,/ A,G, | F,2 F2 E2 D2 | %19
 C2 B,2 .C.C D/C/B, :| F,2 z2 F,3/2F,3/2F, | E,2 z2 z E,/E,/ z/ E,/E,/ z/ | D,2 z2 D,3/2D,3/2D, | %23
 C,2 z2 .C.C D/C/B, | F,2 z2 F,3/2F,3/2F, | G,2 z2 z G,/G,/ z/ G,/G,/ z/ | A,2 z2 A,3/2A,3/2A, | %27
 B,2 z2 .C.C D/C/B, | F,6 z2 | z8 | z8 | z8 | z8 |] %33
V:2
 F,2 z2 F,3/2F,3/2F, | E,2 z2 z E,/E,/ z/ E,/E,/ z/ | D,2 z2 D,3/2D,3/2D, | C,2 z2 .C.C D/C/B, | %4
 F,2 z2 F,3/2F,3/2F, | G,2 z2 z G,/G,/ z/ G,/G,/ z/ | A,2 z2 A,3/2A,3/2A, | B,2 z2 .C.C D/C/B, | %8
 F,2 z2 F,3/2F,3/2F, | E,2 z2 z E,/E,/ z/ E,/E,/ z/ | D,2 z2 D,3/2D,3/2D, | C,2 z2 .C.C D/C/B, | %12
 F,2 z2 F,3/2F,3/2F, | G,2 z2 z G,/G,/ z/ G,/G,/ z/ | A,2 z2 A,3/2A,3/2A, | B,2 z2 .C.C D/C/B, |: %16
 F,2 z2 F,3/2F,3/2F, | E,2 z2 z E,/E,/ z/ E,/E,/ z/ | D,2 z2 D,3/2D,3/2D, | C,2 z2 .C.C D/C/B, :| %20
 F,2 z2 F,3/2F,3/2F, | E,2 z2 z E,/E,/ z/ E,/E,/ z/ | D,2 z2 D,3/2D,3/2D, | C,2 z2 .C.C D/C/B, | %24
 F,2 z2 F,3/2F,3/2F, | G,2 z2 z G,/G,/ z/ G,/G,/ z/ | A,2 z2 A,3/2A,3/2A, | B,2 z2 .C.C D/C/B, | %28
 F,6 z2 | z8 | z8 | z8 | z8 |] %33
V:3
 F,2 z2 F,3/2F,3/2F, | E,2 z2 z E,/E,/ z/ E,/E,/ z/ | D,2 z2 D,3/2D,3/2D, | C,2 z2 .C.C D/C/B, | %4
 F,2 z2 F,3/2F,3/2F, | E,2 z2 z E,/E,/ z/ E,/E,/ z/ | D,2 z2 D,3/2D,3/2D, | C,2 z2 .C.C D/C/B, | %8
 F,2 z2 F,3/2F,3/2F, | E,2 z2 z E,/E,/ z/ E,/E,/ z/ | D,2 z2 D,3/2D,3/2D, | C,2 z2 .C.C D/C/B, | %12
 F,2 z2 F,3/2F,3/2F, | E,2 z2 z E,/E,/ z/ E,/E,/ z/ | D,2 z2 D,3/2D,3/2D, | C,2 z2 .C.C D/C/B, |: %16
 F,2 z2 F,3/2F,3/2F, | E,2 z2 z E,/E,/ z/ E,/E,/ z/ | D,2 z2 D,3/2D,3/2D, | C,2 z2 .C.C D/C/B, :| %20
 F,2 z2 F,3/2F,3/2F, | E,2 z2 z E,/E,/ z/ E,/E,/ z/ | D,2 z2 D,3/2D,3/2D, | C,2 z2 .C.C D/C/B, | %24
 F,2 z2 F,3/2F,3/2F, | E,2 z2 z E,/E,/ z/ E,/E,/ z/ | D,2 z2 D,3/2D,3/2D, | C,2 z2 .C.C D/C/B, | %28
 F,6 z2 | z8 | z8 | z8 | z8 |] %33
V:4
 F,,2 z2 F,,3/2F,,3/2F,, | E,,2 z2 z E,,/E,,/ z/ E,,/E,,/ z/ | D,,2 z2 D,,3/2D,,3/2D,, | %3
 C,,2 z2 .C,.C, D,/C,/B,, | F,,2 z2 F,,3/2F,,3/2F,, | E,,2 z2 z E,,/E,,/ z/ E,,/E,,/ z/ | %6
 D,,2 z2 D,,3/2D,,3/2D,, | C,,2 z2 .C,.C, D,/C,/B,, | F,,2 z2 F,,3/2F,,3/2F,, | %9
 E,,2 z2 z E,,/E,,/ z/ E,,/E,,/ z/ | D,,2 z2 D,,3/2D,,3/2D,, | C,,2 z2 .C,.C, D,/C,/B,, | %12
 F,,2 z2 F,,3/2F,,3/2F,, | E,,2 z2 z E,,/E,,/ z/ E,,/E,,/ z/ | D,,2 z2 D,,3/2D,,3/2D,, | %15
 C,,2 z2 .C,.C, D,/C,/B,, |: F,,2 z2 F,,3/2F,,3/2F,, | E,,2 z2 z E,,/E,,/ z/ E,,/E,,/ z/ | %18
 D,,2 z2 D,,3/2D,,3/2D,, | C,,2 z2 .C,.C, D,/C,/B,, :| F,,2 z2 F,,3/2F,,3/2F,, | %21
 E,,2 z2 z E,,/E,,/ z/ E,,/E,,/ z/ | D,,2 z2 D,,3/2D,,3/2D,, | C,,2 z2 .C,.C, D,/C,/B,, | %24
 F,,2 z2 F,,3/2F,,3/2F,, | E,,2 z2 z E,,/E,,/ z/ E,,/E,,/ z/ | D,,2 z2 D,,3/2D,,3/2D,, | %27
 C,,2 z2 .C,.C, D,/C,/B,, | F,,6 z2 | z8 | z8 | z8 | z8 |] %33

